<?xml version="1.0" encoding="UTF-8"?>
<map version="1.10" tiledversion="1.11.2" orientation="orthogonal" renderorder="right-down" width="25" height="20" tilewidth="32" tileheight="32" infinite="0" nextlayerid="2" nextobjectid="1">
 <tileset firstgid="1" name="tiles" tilewidth="32" tileheight="32" tilecount="18" columns="9">
  <image source="tiles.png" width="288" height="64"/>
  <properties>
   <property name="solid_tiles" type="string" value="[1, 2, 3, 8, 10, 11, 12, 17]"/>
  </properties>
 </tileset>
 <layer id="1" name="Tile Layer 1" width="25" height="20">
  <data encoding="csv">
9,9,9,9,9,9,9,9,9,9,9,9,9,9,9,9,9,9,9,9,9,9,9,9,9,
9,9,9,9,9,9,9,9,9,9,9,9,9,9,9,9,9,9,9,9,9,9,9,9,9,
9,9,9,9,9,9,9,9,9,9,9,9,9,9,9,9,9,9,9,9,9,9,9,9,9,
9,9,9,9,9,9,9,9,9,9,9,9,9,9,9,9,9,9,9,9,9,9,9,9,9,
9,3,3,3,3,3,3,3,9,9,9,9,9,9,9,9,9,9,9,9,9,9,9,9,9,
9,9,9,9,9,9,9,9,9,9,9,9,9,9,9,9,9,9,9,9,9,9,9,9,9,
9,9,9,9,9,9,9,9,9,9,9,9,9,9,9,9,9,9,9,9,9,9,9,9,9,
9,9,9,9,9,9,9,9,9,9,9,3,3,3,3,3,9,9,9,9,9,9,9,9,9,
9,9,9,9,9,9,9,9,9,9,9,9,9,9,9,9,9,9,9,9,9,9,9,9,9,
9,9,9,9,9,9,9,9,9,9,9,9,9,9,9,9,9,9,9,9,9,9,9,9,9,
9,9,9,9,14,14,9,9,9,9,9,9,9,9,9,9,9,9,3,3,3,3,3,3,3,
9,9,9,14,13,13,14,9,9,9,9,9,9,9,9,9,9,9,9,9,9,9,9,9,9,
9,9,9,5,4,4,5,9,9,9,9,9,9,9,9,9,9,9,9,9,9,9,9,9,9,
9,9,9,5,4,4,5,9,9,9,9,9,3,3,3,3,3,9,9,9,9,9,9,9,9,
9,9,9,5,4,4,5,9,9,9,9,9,9,9,9,9,9,9,9,9,9,9,9,9,9,
9,9,9,1,1,1,1,9,9,9,9,9,9,9,9,9,9,9,9,9,9,9,9,9,9,
9,1,1,1,1,1,1,1,1,9,9,9,9,9,9,9,9,9,9,9,9,9,9,9,9,
1,1,1,1,1,1,1,1,1,1,1,1,1,1,1,8,8,8,7,7,7,7,7,7,7,
1,1,1,1,1,1,1,1,1,1,1,1,1,1,1,8,8,8,11,11,11,11,11,7,7,
1,1,1,1,1,1,1,1,1,1,1,1,1,1,1,8,8,8,11,11,11,11,11,11,11
</data>
 </layer>
</map>
